X:38
T:Up in the morning early
M:6/8
L:1/8
K:AMin
E|ABA c2d|efg G2G|ABA  edB  |A3 e2:|
G|cdc cGc|ded dGd|cde  gag  |e3 g2
G|cdc cGc|deg a2g|edc TB>A^G|A3 e2:|

% @@@@@@@@@@@@@@@@@@@@@@@@@@@@@@@@@@

%% 30. ===============================================================================

% @O'ER THE MUIR AMONG@
%       the
%     ^Heather.^
%
% *SETT across, and cast down between the second Couple.  Sett again between the
% 2d and 3d Couple, and cast down below the 3d.  *Turn up again and Right and Left
% with the second Couple.  *SETT cross Partners.  *Lead out at the sides.

% @@@@@@@@@@@@@@@@@@@@@@@@@@@@@@@@@@

